X:1
T:Title
%%score { ( 1 3 ) | ( 2 4 ) }
L:1/8
M:6/8
K:G
V:1 treble nm="Grand Piano"
V:3 treble 
V:2 bass 
V:4 bass 
V:1
 z3 z2[Q:1/4=90] [B,D] | [DB]2 [CA] [B,G]2 [Ec] | [CE]2 [Ec] [DB]2 [B,D] | [A,^C]2 [CA] A2 D | %4
 z3 .B3 | [DB]2 [CA] [B,G]2 [Ec] | [CE]2 [Dc] B2 A | A2 A [Fd]2 [DF] | [DF]2 [^CE] D2 D | %9
 c2 c B2 B | [Ge]2 [Ge] [Gd]2 [DG] | [DA]2 [Dc] [DB]2 [DG] |[M:5/8] [DB]2 [CA] [G,B,G]2 | %13
[M:1/8] B |[M:3/4] d2 c B2 A | G6 | e2 d c2 B | A6 | D3- [G,DG]2 [EA] | [DB]3 [CA]3 | %20
[M:5/8] [B,G]-[B,G]- [B,G]3 |] %21
V:2
 z3 z2 [G,,G,] | [G,,G,]2 [G,,G,] [G,,G,]2 [G,,G,] | [C,G,]2 [C,G,] [G,,G,]2 [G,,G,] | %3
 [A,,E,]2 [A,,E,] [D,F,D]2 [D,F,] | [D,A,D]2 [D,A,] .[G,G]2 [G,,G,] | %5
 [G,,G,]2 [G,,G,] [G,,G,]2 [G,,G,] | [C,G,]2 [C,G,][K:treble] [G,D]2 [G,DF] | %7
 [A,DF]2 [A,DF][K:bass] [A,,A,]2 [A,,A,] | [A,,A,]2 [A,,G,] [D,F,]2 [D,F,] | %9
 [D,F,D]2 [D,F,D] [D,G,D]2 [D,G,D] | [B,,G,]2 [B,,G,] [B,,G,]2 [B,,G,] | %11
 [A,,F,]2 [D,F,] [D,G,]2 [B,,G,] |[M:5/8] [D,G,]2 [D,F,] G,,2 |[M:1/8] B, |[M:3/4] D2 C B,2 A, | %15
 z2 C B,2 B, | E2 D C2 B, | z2 ^C D2[K:bass] ^C, | D,2 C, B,,2 [C,G,] | [D,G,]3 [D,F,]3 | %20
[M:5/8] [G,,G,]-[G,,G,]- [G,,G,]3 |] %21
V:3
 x6 | x6 | x6 | x6 | F2 [Fc] z D[B,D] | x6 | x6 | x6 | x6 | x6 | x6 | x6 |[M:5/8] x5 |[M:1/8] x | %14
[M:3/4] x6 | z2 E D2 B | x6 | z2 G F2 [A,EG] | [A,F]4 z2 | x6 |[M:5/8] x5 |] %21
V:4
 x6 | x6 | x6 | x6 | x6 | x6 | x3[K:treble] x3 | x3[K:bass] x3 | x6 | x6 | x6 | x6 |[M:5/8] x5 | %13
[M:1/8] x |[M:3/4] x6 | G,6 | x6 | A,6[K:bass] | x6 | x6 |[M:5/8] x5 |] %21

